app/assets/v2/images/badge-verify.svg

<svg width="26px" height="26px" viewBox="0 0 26 26" version="1.1" xmlns="http://www.w3.org/2000/svg" xmlns:xlink="http://www.w3.org/1999/xlink">
    <g id="Page-1" stroke="none" stroke-width="1" fill="none" fill-rule="evenodd">
        <g id="PROFILE" transform="translate(-520.000000, -243.000000)" fill-rule="nonzero">
            <g id="Header" transform="translate(150.000000, 192.000000)">
                <g id="bio" transform="translate(29.000000, 36.000000)">
                    <g id="badge" transform="translate(341.000000, 15.000000)">
                        <path d="M24.6066871,8.16794634 C25.5677241,8.72839078 25.8989834,9.96002041 25.3443167,10.9268352 L24.2686871,12.8075019 L25.3443167,14.6872056 C25.8970574,15.6549834 25.5677241,16.8846871 24.6057241,17.4460945 L22.7337241,18.5380945 L22.7221686,20.7047612 C22.7163908,21.8179463 21.8169834,22.7173537 20.7057241,22.7231315 L18.5380945,22.7346871 L17.4441686,24.60765 C17.068613,25.2528352 16.3897241,25.6139463 15.691576,25.6139463 C15.35165,25.6139463 15.0049834,25.5272797 14.6872056,25.3462426 L12.8065389,24.270613 L10.9258723,25.3462426 C9.95809448,25.8980204 8.72742782,25.5686871 8.16698337,24.60765 L7.07498337,22.73565 L4.90831671,22.7240945 C3.79609448,22.7173537 2.89668708,21.8169834 2.8909093,20.7057241 L2.87935374,18.5390574 L1.00639078,17.4460945 C0.0453537438,16.8837241 -0.284942553,15.6540204 0.267798188,14.6872056 L1.34342782,12.8075019 L0.268761151,10.9268352 C-0.28397959,9.96002041 0.0453537438,8.72935374 1.00735374,8.16794634 L2.87935374,7.07594634 L2.8909093,4.90831671 C2.89765004,3.79609448 3.79705745,2.89765004 4.90831671,2.8909093 L7.07498337,2.87839078 L8.16794634,1.00639078 C8.72742782,0.0453537438 9.95809448,-0.284942553 10.9258723,0.267798188 L12.8065389,1.34342782 L14.6872056,0.268761151 C15.6549834,-0.28397959 16.88565,0.0463167067 17.4460945,1.00735374 L18.5380945,2.87935374 L20.7047612,2.8909093 C21.8179463,2.89765004 22.7163908,3.79705745 22.7221686,4.90831671 L22.7337241,7.07594634 L24.6066871,8.16794634 Z" id="Combined-Shape" fill="#3E00FF"></path>
                        <path d="M5.22606763,13.7733482 C4.92464412,13.4988431 4.92464412,13.0537642 5.22606763,12.7792316 L6.31763865,11.785115 C6.61906216,11.5105824 7.1078163,11.5105824 7.40923981,11.785115 L10.7890606,14.8630761 L18.0282602,8.27039497 C18.3296837,7.99588985 18.8184378,7.99588985 19.1198614,8.27039497 L20.2114324,9.26451157 C20.5128559,9.53901669 20.5128559,9.98409558 20.2114324,10.2586282 L11.3348612,18.3425117 C11.0334075,18.6170168 10.5446835,18.6170168 10.24326,18.3424842 L5.22606763,13.7733482 Z" id="Mask" fill="#FFFFFF"></path>
                    </g>
                </g>
            </g>
        </g>
    </g>
</svg>

<svg xmlns="http://www.w3.org/2000/svg" width="26" height="26"><g fill="none" fill-rule="nonzero"><path fill="#3E00FF" d="M24.607 8.168a2.027 2.027 0 0 1 .737 2.759l-1.075 1.88 1.075 1.88a2.028 2.028 0 0 1-.738 2.76l-1.872 1.091-.012 2.167a2.027 2.027 0 0 1-2.016 2.018l-2.168.012-1.094 1.873a2.025 2.025 0 0 1-2.757.738l-1.88-1.075-1.881 1.075a2.03 2.03 0 0 1-2.759-.738l-1.092-1.872-2.167-.012a2.03 2.03 0 0 1-2.017-2.018l-.012-2.167-1.873-1.093a2.03 2.03 0 0 1-.738-2.759l1.075-1.88-1.074-1.88a2.028 2.028 0 0 1 .738-2.76L2.88 7.077l.012-2.168a2.03 2.03 0 0 1 2.017-2.017l2.167-.013 1.093-1.872a2.027 2.027 0 0 1 2.758-.738l1.88 1.075L14.688.27a2.028 2.028 0 0 1 2.76.738l1.091 1.872 2.167.012a2.028 2.028 0 0 1 2.017 2.017l.012 2.168 1.873 1.092z"/><path fill="#FFF" d="M5.226 13.773a.66.66 0 0 1 0-.994l1.092-.994a.826.826 0 0 1 1.091 0l3.38 3.078 7.24-6.593a.826.826 0 0 1 1.09 0l1.092.995a.66.66 0 0 1 0 .994l-8.876 8.084a.826.826 0 0 1-1.092 0l-5.017-4.57z"/></g></svg>
